src/telerik-icons/solid/chart-radar.svg

<?xml version="1.0" encoding="utf-8"?>
<svg xmlns="http://www.w3.org/2000/svg" width="512" height="512" viewBox="0 0 512 512">
  <path d="M272 32h-32v44L80.7 195.5l-41.1-10-7.6 31.1 42.3 10.3 81 148.5-62.7 86.3 25.9 18.8 67.2-92.5L344 412.3l49.5 68.2 25.9-18.8-46.8-64.4 40.8-163.1 65.8-15.3-7.3-31.2-74.9 17.4L272 80V32zm-32 202.2-119-28.9L240 116v118.2zm32 0v-109l88.4 88.4-88.4 20.6zm-95.9 112.5-59.8-109.6 118.5 28.8-58.7 80.8zm172 17.3-71-97.7 101.3-23.6L348.1 364zm-30.6 12-110.6-17 49.1-67.6 61.5 84.6z"/>
</svg>

<?xml version="1.0" encoding="utf-8"?>
<!-- Generator: Adobe Illustrator 24.2.0, SVG Export Plug-In . SVG Version: 6.00 Build 0)  -->
<svg xmlns="http://www.w3.org/2000/svg" width="512" height="512" viewBox="0 0 512 512">
<path d="M272,32h-32v44L80.7,195.5l-41.1-10L32,216.6l42.3,10.3l81,148.5l-62.7,86.3l25.9,18.8l67.2-92.5L344,412.3l49.5,68.2
	l25.9-18.8l-46.8-64.4l40.8-163.1l65.8-15.3l-7.3-31.2L397,205.1L272,80V32z M240,234.2l-119-28.9L240,116V234.2z M272,234.2v-109
	l88.4,88.4L272,234.2L272,234.2z M176.1,346.7l-59.8-109.6l118.5,28.8L176.1,346.7L176.1,346.7z M348.1,364l-71-97.7l101.3-23.6
	L348.1,364L348.1,364z M317.5,376l-110.6-17l49.1-67.6L317.5,376L317.5,376z" />
</svg>
